app/assets/icons/home_icon.svg

<svg width="24" height="24" viewBox="0 0 24 24" fill="none" xmlns="http://www.w3.org/2000/svg">
<path d="M6 18.9999H9.692V13.1149H14.308V18.9999H18V9.99991L12 5.46191L6 9.99991V18.9999ZM5 19.9999V9.49991L12 4.21191L19 9.49991V19.9999H13.308V14.1149H10.692V19.9999H5Z" fill="#222222"/>
</svg>

<svg width="24" height="24" fill="none" xmlns="http://www.w3.org/2000/svg"><path d="M6 19h3.692v-5.885h4.616V19H18v-9l-6-4.538L6 10v9Zm-1 1V9.5l7-5.288L19 9.5V20h-5.692v-5.885h-2.616V20H5Z" fill="#222"/></svg>
